Numix-GalliumOS/16/mimetypes/gdtable.svg

<?xml version="1.0" encoding="UTF-8" standalone="no"?>
<svg
   xmlns:dc="http://purl.org/dc/elements/1.1/"
   xmlns:cc="http://creativecommons.org/ns#"
   xmlns:rdf="http://www.w3.org/1999/02/22-rdf-syntax-ns#"
   xmlns:svg="http://www.w3.org/2000/svg"
   xmlns="http://www.w3.org/2000/svg"
   xmlns:sodipodi="http://sodipodi.sourceforge.net/DTD/sodipodi-0.dtd"
   xmlns:inkscape="http://www.inkscape.org/namespaces/inkscape"
   width="16"
   height="16"
   viewBox="0 0 16 16"
   id="svg2"
   version="1.1"
   inkscape:version="0.91 r13725"
   sodipodi:docname="gdtable.svg">
  <metadata
     id="metadata16">
    <rdf:RDF>
      <cc:Work
         rdf:about="">
        <dc:format>image/svg+xml</dc:format>
        <dc:type
           rdf:resource="http://purl.org/dc/dcmitype/StillImage" />
      </cc:Work>
    </rdf:RDF>
  </metadata>
  <defs
     id="defs14" />
  <sodipodi:namedview
     pagecolor="#ffffff"
     bordercolor="#666666"
     borderopacity="1"
     objecttolerance="10"
     gridtolerance="10"
     guidetolerance="10"
     inkscape:pageopacity="0"
     inkscape:pageshadow="2"
     inkscape:window-width="1280"
     inkscape:window-height="998"
     id="namedview12"
     showgrid="true"
     inkscape:zoom="59"
     inkscape:cx="10.184469"
     inkscape:cy="5.0239525"
     inkscape:window-x="0"
     inkscape:window-y="0"
     inkscape:window-maximized="1"
     inkscape:current-layer="svg2">
    <inkscape:grid
       type="xygrid"
       id="grid3004" />
  </sodipodi:namedview>
  <path
     style="fill:#13a553;fill-opacity:1"
     d="M 2.667969,-4.456e-4 C 2.324219,-4.456e-4 2,0.3378124 2,0.6964471 L 2,15.303108 C 2,15.641365 2.34375,16 2.667969,16 l 10.664062,0 C 13.65625,16 14,15.641365 14,15.303108 L 14,3.9995542 10,-4.456e-4 z"
     id="path4-2"
     inkscape:connector-curvature="0"
     sodipodi:nodetypes="ssssssccs" />
  <path
     style="fill:#000000;fill-opacity:0.19599998"
     d="m 10.583223,3.3315852 0.0154,0.01953 0.04005,-0.01953 z m 0.02978,0.667969 3.387,3.664062 0,-3.664062 z"
     id="path6-3"
     inkscape:connector-curvature="0"
     sodipodi:nodetypes="cccccccc" />
  <path
     style="fill:#ffffff;fill-opacity:0.39200003"
     d="m 10,-4.456e-4 3.996396,3.9999998 -3.383784,0 C 10.313513,3.9995542 10,3.6824372 10,3.3833382 z"
     id="path8-2"
     inkscape:connector-curvature="0"
     sodipodi:nodetypes="ccssc" />
  <path
     style="fill:#f9f9f9;fill-opacity:1"
     d="m 30.88814,4.5618167 c 0,2.5814587 0,4.762162 0,7.0000003 -2.808908,0 -5.570926,0 -8,0 0,-2.5814603 0,-4.7621634 0,-7.0000003 2.776085,0 5.622509,0 8,0 z m -1,1 -3,0 0,1 3,0 z m -4,0 -2.002345,0 0.0023,1.0535894 2.002346,0 z m 4,2 -3,0 0,1 3,0 z m -4,0 -2,0 0,1 2,0 z m 4,2 -3,0 0,1.0000003 3,0 z m -4,0 -2,0 0,1.0000003 2,0 z"
     id="path10"
     inkscape:connector-curvature="0"
     sodipodi:nodetypes="ccccccccccccccccccccccccccccccccccc" />
  <path
     style="color:#000000;font-style:normal;font-variant:normal;font-weight:normal;font-stretch:normal;font-size:medium;line-height:normal;font-family:sans-serif;text-indent:0;text-align:start;text-decoration:none;text-decoration-line:none;text-decoration-style:solid;text-decoration-color:#000000;letter-spacing:normal;word-spacing:normal;text-transform:none;direction:ltr;block-progression:tb;writing-mode:lr-tb;baseline-shift:baseline;text-anchor:start;white-space:normal;clip-rule:nonzero;display:inline;overflow:visible;visibility:visible;opacity:1;isolation:auto;mix-blend-mode:normal;color-interpolation:sRGB;color-interpolation-filters:linearRGB;solid-color:#000000;solid-opacity:1;fill:#f9f9f9;fill-opacity:1;fill-rule:nonzero;stroke:none;stroke-width:0.6;stroke-linecap:butt;stroke-linejoin:miter;stroke-miterlimit:4;stroke-dasharray:none;stroke-dashoffset:0;stroke-opacity:1;color-rendering:auto;image-rendering:auto;shape-rendering:auto;text-rendering:auto;enable-background:accumulate"
     d="M 12.042598,5.9931045 9.7737179,8.8745671 8.7096165,7.5842802 6.3368517,10.6529 5.2770787,9.4405921 2.786,12.549044 3.1063126,12.713638 5.290786,9.9881061 6.3563301,11.206771 8.7204381,8.150305 9.7816556,9.4365411 12.067128,6.532545 12.934278,7.4716724 13.240164,7.290311 12.042598,5.9931045 Z"
     id="path3757"
     inkscape:connector-curvature="0" />
  <rect
     style="opacity:1;fill:#f9f9f9;fill-opacity:1;fill-rule:nonzero;stroke:none;stroke-width:30.89999962;stroke-linejoin:round;stroke-miterlimit:4;stroke-dasharray:none;stroke-opacity:1"
     id="rect4816"
     width="1"
     height="1"
     x="4"
     y="6" />
  <rect
     style="opacity:1;fill:#f9f9f9;fill-opacity:1;fill-rule:nonzero;stroke:none;stroke-width:30.89999962;stroke-linejoin:round;stroke-miterlimit:4;stroke-dasharray:none;stroke-opacity:1"
     id="rect4822"
     width="2"
     height="1"
     x="6"
     y="6" />
  <rect
     style="opacity:1;fill:#f9f9f9;fill-opacity:1;fill-rule:nonzero;stroke:none;stroke-width:30.89999962;stroke-linejoin:round;stroke-miterlimit:4;stroke-dasharray:none;stroke-opacity:1"
     id="rect4828"
     width="1"
     height="4"
     x="11"
     y="9" />
  <rect
     style="opacity:1;fill:#f9f9f9;fill-opacity:1;fill-rule:nonzero;stroke:none;stroke-width:30.89999962;stroke-linejoin:round;stroke-miterlimit:4;stroke-dasharray:none;stroke-opacity:1"
     id="rect4830"
     width="1"
     height="2"
     x="9"
     y="11" />
  <rect
     style="opacity:1;fill:#f9f9f9;fill-opacity:1;fill-rule:nonzero;stroke:none;stroke-width:30.89999962;stroke-linejoin:round;stroke-miterlimit:4;stroke-dasharray:none;stroke-opacity:1"
     id="rect4832"
     width="1"
     height="1"
     x="7"
     y="12" />
</svg>

<svg xmlns="http://www.w3.org/2000/svg" viewBox="0 0 16 16">
 <path d="m 2.668 0 c -0.344 0 -0.668 0.338 -0.668 0.697 l 0 14.607 c 0 0.338 0.344 0.697 0.668 0.697 l 10.664 0 c 0.324 0 0.668 -0.359 0.668 -0.697 l 0 -11.304 -4 -4 z" style="fill:#13a553;fill-opacity:1"/>
 <path d="m 10.583 3.332 0.015 0.02 0.04 -0.02 z m 0.03 0.668 3.387 3.664 0 -3.664 z" style="fill:#000;fill-opacity:0.196"/>
 <path d="m 10 0 3.996 4 -3.384 0 c -0.299 0 -0.613 -0.317 -0.613 -0.616 z" style="fill:#fff;fill-opacity:0.392"/>
 <path d="m 12.04 5.993 -2.269 2.881 -1.064 -1.29 -2.373 3.069 -1.06 -1.212 -2.491 3.108 0.32 0.165 2.184 -2.726 1.066 1.219 2.364 -3.056 1.061 1.286 2.285 -2.904 0.867 0.939 0.306 -0.181 -1.198 -1.297" mix-blend-mode="normal" isolation="auto" white-space="normal" solid-opacity="1" solid-color="#000000" style="visibility:visible;shape-rendering:auto;color-interpolation-filters:linearRGB;fill:#f9f9f9;opacity:1;image-rendering:auto;fill-opacity:1;stroke:none;display:inline;color:#000;fill-rule:nonzero;color-rendering:auto;color-interpolation:sRGB"/>
 <rect width="1" height="1" x="4" y="6" style="fill:#f9f9f9;opacity:1;fill-opacity:1;stroke:none;fill-rule:nonzero"/>
 <rect width="2" height="1" x="6" y="6" style="fill:#f9f9f9;opacity:1;fill-opacity:1;stroke:none;fill-rule:nonzero"/>
 <rect width="1" height="4" x="11" y="9" style="fill:#f9f9f9;opacity:1;fill-opacity:1;stroke:none;fill-rule:nonzero"/>
 <rect width="1" height="2" x="9" y="11" style="fill:#f9f9f9;opacity:1;fill-opacity:1;stroke:none;fill-rule:nonzero"/>
 <rect width="1" height="1" x="7" y="12" style="fill:#f9f9f9;opacity:1;fill-opacity:1;stroke:none;fill-rule:nonzero"/>
</svg>
